core/assets/icons/my_beeline.svg

<svg width="24" height="24" viewBox="0 0 24 24" xmlns="http://www.w3.org/2000/svg"><g id="my beeline"><path id="Vector" d="M17.841 15.659L18.017 15.836L18.195 15.659C18.4039 15.4501 18.652 15.2843 18.925 15.1713C19.1979 15.0582 19.4905 15 19.786 15C20.0815 15 20.3741 15.0582 20.647 15.1713C20.92 15.2843 21.1681 15.4501 21.377 15.659C21.5859 15.8679 21.7517 16.116 21.8647 16.389C21.9778 16.6619 22.036 16.9545 22.036 17.25C22.036 17.5455 21.9778 17.8381 21.8647 18.111C21.7517 18.384 21.5859 18.6321 21.377 18.841L18.017 22.2L14.659 18.841C14.237 18.419 14 17.8467 14 17.25C14 16.6533 14.237 16.081 14.659 15.659C15.081 15.237 15.6533 15 16.25 15C16.8467 15 17.419 15.237 17.841 15.659ZM12 14V16C10.4087 16 8.88258 16.6321 7.75736 17.7574C6.63214 18.8826 6 20.4087 6 22H4C4.00002 19.9216 4.80894 17.9247 6.25547 16.4323C7.702 14.9398 9.67259 14.069 11.75 14.004L12 14ZM12 1C15.315 1 18 3.685 18 7C18.0006 8.55253 17.3991 10.0448 16.3221 11.163C15.2451 12.2812 13.7765 12.9383 12.225 12.996L12 13C8.685 13 6 10.315 6 7C5.99944 5.44747 6.6009 3.95521 7.67791 2.83699C8.75491 1.71877 10.2235 1.06172 11.775 1.004L12 1ZM12 3C9.79 3 8 4.79 8 7C8 9.21 9.79 11 12 11C14.21 11 16 9.21 16 7C16 4.79 14.21 3 12 3Z"/></g></svg>

<svg xmlns="http://www.w3.org/2000/svg" width="24" height="24" fill="none"><path fill="#191C22" d="m17.841 15.659.176.177.178-.177a2.249 2.249 0 1 1 3.182 3.182l-3.36 3.359-3.358-3.359a2.25 2.25 0 0 1 3.182-3.182ZM12 14v2a6 6 0 0 0-6 6H4a8 8 0 0 1 7.75-7.996L12 14Zm0-13c3.315 0 6 2.685 6 6a5.998 5.998 0 0 1-5.775 5.996L12 13c-3.315 0-6-2.685-6-6a5.998 5.998 0 0 1 5.775-5.996L12 1Zm0 2C9.79 3 8 4.79 8 7s1.79 4 4 4 4-1.79 4-4-1.79-4-4-4Z"/></svg>
